static/img/kroki/710a83dbcf750e4eacb63dc5670ad22e.svg

<?xml version="1.0" encoding="us-ascii" standalone="no"?><svg xmlns="http://www.w3.org/2000/svg" xmlns:xlink="http://www.w3.org/1999/xlink" contentStyleType="text/css" height="374px" preserveAspectRatio="none" style="width:378px;height:374px;" version="1.1" viewBox="0 0 378 374" width="378px" zoomAndPan="magnify"><defs/><g><!--class aws_iam_instance_profile--><g id="elem_aws_iam_instance_profile"><rect codeLine="23" fill="#3D176E" height="39.7891" id="aws_iam_instance_profile" rx="2.5" ry="2.5" style="stroke:#000D19;stroke-width:0.5;" width="257" x="55" y="328.58"/><ellipse cx="70" cy="348.4745" fill="#ADD1B2" rx="11" ry="11" style="stroke:#181818;stroke-width:1.0;"/><path d="M72.9688,354.1152 Q72.3906,354.412 71.75,354.5527 Q71.1094,354.7089 70.4063,354.7089 Q67.9063,354.7089 66.5781,353.0683 Q65.2656,351.412 65.2656,348.287 Q65.2656,345.162 66.5781,343.5058 Q67.9063,341.8495 70.4063,341.8495 Q71.1094,341.8495 71.75,342.0058 Q72.4063,342.162 72.9688,342.4589 L72.9688,345.1777 Q72.3438,344.5995 71.75,344.3339 Q71.1563,344.0527 70.5313,344.0527 Q69.1875,344.0527 68.5,345.1308 Q67.8125,346.1933 67.8125,348.287 Q67.8125,350.3808 68.5,351.4589 Q69.1875,352.5214 70.5313,352.5214 Q71.1563,352.5214 71.75,352.2558 Q72.3438,351.9745 72.9688,351.3964 L72.9688,354.1152 Z " fill="#000000"/><text fill="#D9B8FF" font-family="Helvetica" font-size="17" lengthAdjust="spacing" textLength="215" x="89" y="354.3598">aws_iam_instance_profile</text></g><!--class aws_resource--><g id="elem_aws_resource"><rect codeLine="26" fill="#3D176E" height="39.7891" id="aws_resource" rx="2.5" ry="2.5" style="stroke:#000D19;stroke-width:0.5;" width="155" x="7" y="167.79"/><ellipse cx="22" cy="187.6845" fill="#ADD1B2" rx="11" ry="11" style="stroke:#181818;stroke-width:1.0;"/><path d="M24.9688,193.3252 Q24.3906,193.622 23.75,193.7627 Q23.1094,193.9189 22.4063,193.9189 Q19.9063,193.9189 18.5781,192.2783 Q17.2656,190.622 17.2656,187.497 Q17.2656,184.372 18.5781,182.7158 Q19.9063,181.0595 22.4063,181.0595 Q23.1094,181.0595 23.75,181.2158 Q24.4063,181.372 24.9688,181.6689 L24.9688,184.3877 Q24.3438,183.8095 23.75,183.5439 Q23.1563,183.2627 22.5313,183.2627 Q21.1875,183.2627 20.5,184.3408 Q19.8125,185.4033 19.8125,187.497 Q19.8125,189.5908 20.5,190.6689 Q21.1875,191.7314 22.5313,191.7314 Q23.1563,191.7314 23.75,191.4658 Q24.3438,191.1845 24.9688,190.6064 L24.9688,193.3252 Z " fill="#000000"/><text fill="#D9B8FF" font-family="Helvetica" font-size="17" lengthAdjust="spacing" textLength="113" x="41" y="193.5698">aws_resource</text></g><!--class instance_profile--><g id="elem_instance_profile"><rect codeLine="29" fill="#3D176E" height="39.7891" id="instance_profile" rx="2.5" ry="2.5" style="stroke:#000D19;stroke-width:0.5;" width="174" x="197.5" y="167.79"/><ellipse cx="212.5" cy="187.6845" fill="#ADD1B2" rx="11" ry="11" style="stroke:#181818;stroke-width:1.0;"/><path d="M215.4688,193.3252 Q214.8906,193.622 214.25,193.7627 Q213.6094,193.9189 212.9063,193.9189 Q210.4063,193.9189 209.0781,192.2783 Q207.7656,190.622 207.7656,187.497 Q207.7656,184.372 209.0781,182.7158 Q210.4063,181.0595 212.9063,181.0595 Q213.6094,181.0595 214.25,181.2158 Q214.9063,181.372 215.4688,181.6689 L215.4688,184.3877 Q214.8438,183.8095 214.25,183.5439 Q213.6563,183.2627 213.0313,183.2627 Q211.6875,183.2627 211,184.3408 Q210.3125,185.4033 210.3125,187.497 Q210.3125,189.5908 211,190.6689 Q211.6875,191.7314 213.0313,191.7314 Q213.6563,191.7314 214.25,191.4658 Q214.8438,191.1845 215.4688,190.6064 L215.4688,193.3252 Z " fill="#000000"/><text fill="#D9B8FF" font-family="Helvetica" font-size="17" lengthAdjust="spacing" textLength="132" x="231.5" y="193.5698">instance_profile</text></g><!--class resource--><g id="elem_resource"><rect codeLine="32" fill="#3D176E" height="39.7891" id="resource" rx="2.5" ry="2.5" style="stroke:#000D19;stroke-width:0.5;" width="113" x="127" y="7"/><ellipse cx="142" cy="26.8945" fill="#ADD1B2" rx="11" ry="11" style="stroke:#181818;stroke-width:1.0;"/><path d="M144.9688,32.5352 Q144.3906,32.832 143.75,32.9727 Q143.1094,33.1289 142.4063,33.1289 Q139.9063,33.1289 138.5781,31.4883 Q137.2656,29.832 137.2656,26.707 Q137.2656,23.582 138.5781,21.9258 Q139.9063,20.2695 142.4063,20.2695 Q143.1094,20.2695 143.75,20.4258 Q144.4063,20.582 144.9688,20.8789 L144.9688,23.5977 Q144.3438,23.0195 143.75,22.7539 Q143.1563,22.4727 142.5313,22.4727 Q141.1875,22.4727 140.5,23.5508 Q139.8125,24.6133 139.8125,26.707 Q139.8125,28.8008 140.5,29.8789 Q141.1875,30.9414 142.5313,30.9414 Q143.1563,30.9414 143.75,30.6758 Q144.3438,30.3945 144.9688,29.8164 L144.9688,32.5352 Z " fill="#000000"/><text fill="#D9B8FF" font-family="Helvetica" font-size="17" lengthAdjust="spacing" textLength="71" x="161" y="32.7798">resource</text></g><!--reverse link aws_resource to aws_iam_instance_profile--><g id="link_aws_resource_aws_iam_instance_profile"><path codeLine="35" d="M105.9638,223.1141 C124.9938,253.6341 152.46,297.69 171.52,328.25 " fill="none" id="aws_resource-backto-aws_iam_instance_profile" style="stroke:#FFAF37;stroke-width:2.0;"/><polygon fill="none" points="96.44,207.84,100.8724,226.2887,111.0551,219.9395,96.44,207.84" style="stroke:#FFAF37;stroke-width:2.0;"/></g><!--reverse link instance_profile to aws_iam_instance_profile--><g id="link_instance_profile_aws_iam_instance_profile"><path codeLine="36" d="M262.6569,223.0263 C243.2369,253.5463 215.17,297.69 195.73,328.25 " fill="none" id="instance_profile-backto-aws_iam_instance_profile" style="stroke:#FFAF37;stroke-width:2.0;"/><polygon fill="none" points="272.32,207.84,257.5948,219.8053,267.719,226.2474,272.32,207.84" style="stroke:#FFAF37;stroke-width:2.0;"/></g><!--reverse link resource to aws_resource--><g id="link_resource_aws_resource"><path codeLine="37" d="M162.0362,62.3241 C143.0062,92.8441 115.54,136.9 96.48,167.46 " fill="none" id="resource-backto-aws_resource" style="stroke:#FFAF37;stroke-width:2.0;"/><polygon fill="none" points="171.56,47.05,156.9449,59.1495,167.1276,65.4987,171.56,47.05" style="stroke:#FFAF37;stroke-width:2.0;"/></g><!--reverse link resource to instance_profile--><g id="link_resource_instance_profile"><path codeLine="38" d="M205.3431,62.2363 C224.7631,92.7563 252.83,136.9 272.27,167.46 " fill="none" id="resource-backto-instance_profile" style="stroke:#FFAF37;stroke-width:2.0;"/><polygon fill="none" points="195.68,47.05,200.281,65.4574,210.4052,59.0153,195.68,47.05" style="stroke:#FFAF37;stroke-width:2.0;"/></g><!--SRC=[XP3DRi8m48JlUGfBd958KGkHUe58LNj1LUazsjXhOX7RqTeKqPztRrDAvSG4hZFVpivkfGGor8q_C8swH7A9sohJ085c2oAxpsrjYOsa13cTzSq7Q_nLO0KQsIFMR-WLXpxnMYc-DUWSkmci9V3jXkpEY6Ey9p3knqBZ0oglmRc5zwJAdSUWZCZAkPHziXywcefqTeSHPaaW_I6JoKIaMH-vkkhYtV_4MhqZIyEdhQp7g6QqufUwsB8bWfBHeIT_iECp2A7CXjq6sikn4ncaZhwkGDXzIqkeNRZ6UIIq_j1W7bs5sLp8sLduQGXEUFiw1djNAD25Ciw3uLWqPAMgaNqaoLV043gx8zxHByrq-Kx2_UTuF1vSd4IfL_WpkIUfxqMptm00]--></g></svg>

<svg xmlns="http://www.w3.org/2000/svg" width="378" height="374" viewBox="0 0 378 374"><rect width="257" height="39.789" x="55" y="328.58" fill="#3D176E" rx="2.5" ry="2.5" style="stroke:#000d19;stroke-width:.5"/><circle cx="70" cy="348.474" r="11" fill="#ADD1B2" style="stroke:#181818;stroke-width:1"/><path d="M72.969 354.115q-.578.297-1.219.438-.64.156-1.344.156-2.5 0-3.828-1.64-1.312-1.657-1.312-4.782t1.312-4.781q1.328-1.656 3.828-1.656.703 0 1.344.156.656.156 1.219.453v2.719q-.625-.579-1.219-.844-.594-.281-1.219-.281-1.344 0-2.031 1.078-.687 1.062-.687 3.156t.687 3.172q.688 1.062 2.031 1.062.625 0 1.219-.265.594-.281 1.219-.86z"/><text x="89" y="354.36" fill="#D9B8FF" font-family="Helvetica" font-size="17" textLength="215">aws_iam_instance_profile</text><rect width="155" height="39.789" x="7" y="167.79" fill="#3D176E" rx="2.5" ry="2.5" style="stroke:#000d19;stroke-width:.5"/><circle cx="22" cy="187.685" r="11" fill="#ADD1B2" style="stroke:#181818;stroke-width:1"/><path d="M24.969 193.325q-.578.297-1.219.438-.64.156-1.344.156-2.5 0-3.828-1.64-1.312-1.657-1.312-4.782t1.312-4.781q1.328-1.656 3.828-1.656.703 0 1.344.156.656.156 1.219.453v2.719q-.625-.578-1.219-.844-.594-.281-1.219-.281-1.343 0-2.031 1.078-.687 1.062-.687 3.156t.687 3.172q.688 1.062 2.031 1.062.625 0 1.219-.265.594-.281 1.219-.86z"/><text x="41" y="193.57" fill="#D9B8FF" font-family="Helvetica" font-size="17" textLength="113">aws_resource</text><rect width="174" height="39.789" x="197.5" y="167.79" fill="#3D176E" rx="2.5" ry="2.5" style="stroke:#000d19;stroke-width:.5"/><circle cx="212.5" cy="187.685" r="11" fill="#ADD1B2" style="stroke:#181818;stroke-width:1"/><path d="M215.469 193.325q-.578.297-1.219.438-.64.156-1.344.156-2.5 0-3.828-1.64-1.312-1.657-1.312-4.782t1.312-4.781q1.328-1.656 3.828-1.656.703 0 1.344.156.656.156 1.219.453v2.719q-.625-.578-1.219-.844-.594-.281-1.219-.281-1.344 0-2.031 1.078-.687 1.062-.687 3.156t.687 3.172q.688 1.062 2.031 1.062.625 0 1.219-.265.594-.281 1.219-.86z"/><text x="231.5" y="193.57" fill="#D9B8FF" font-family="Helvetica" font-size="17" textLength="132">instance_profile</text><rect width="113" height="39.789" x="127" y="7" fill="#3D176E" rx="2.5" ry="2.5" style="stroke:#000d19;stroke-width:.5"/><circle cx="142" cy="26.895" r="11" fill="#ADD1B2" style="stroke:#181818;stroke-width:1"/><path d="M144.969 32.535q-.578.297-1.219.438-.64.156-1.344.156-2.5 0-3.828-1.64-1.312-1.657-1.312-4.782t1.312-4.781q1.328-1.656 3.828-1.656.703 0 1.344.156.656.156 1.219.453v2.719q-.625-.578-1.219-.844-.594-.281-1.219-.281-1.344 0-2.031 1.078-.687 1.062-.687 3.156t.687 3.172q.688 1.062 2.031 1.062.625 0 1.219-.265.594-.281 1.219-.86z"/><text x="161" y="32.78" fill="#D9B8FF" font-family="Helvetica" font-size="17" textLength="71">resource</text><path fill="none" d="M105.964 223.114c19.03 30.52 46.496 74.576 65.556 105.136M96.44 207.84l4.432 18.449 10.183-6.35z" style="stroke:#ffaf37;stroke-width:2"/><g fill="none"><path d="M262.657 223.026c-19.42 30.52-47.487 74.664-66.927 105.224" style="stroke:#ffaf37;stroke-width:2"/><path d="m272.32 207.84-14.725 11.965 10.124 6.442z" style="stroke:#ffaf37;stroke-width:2"/></g><g fill="none"><path d="M162.036 62.324C143.006 92.844 115.54 136.9 96.48 167.46" style="stroke:#ffaf37;stroke-width:2"/><path d="m171.56 47.05-14.615 12.1 10.183 6.349z" style="stroke:#ffaf37;stroke-width:2"/></g><g fill="none"><path d="M205.343 62.236c19.42 30.52 47.487 74.664 66.927 105.224" style="stroke:#ffaf37;stroke-width:2"/><path d="m195.68 47.05 4.601 18.407 10.124-6.442z" style="stroke:#ffaf37;stroke-width:2"/></g></svg>
